X: 81
T: Tom, the Piper's Son
O: English
%R: air, march
B: "The Everyday Song Book", 1927
F: http://www.library.pitt.edu/happybirthday/pdf/The_Everyday_Song_Book.pdf
Z: 2017 John Chambers <jc:trillian.mit.edu>
M: 2/4
L: 1/8
K: G
% - - - - - - - - - - - - - - - - - - - - - - - - - - - - -
!f![| "^>"G2 "^>"F> G | .B .G D2 | !mf! G G G F/ G/ | B G D2 z/ !f!d/ |
w: Tom, Tom, the pi-per's son, Stole a pig, and a-way he run! The
.d .e .d z/ !p!D/ | .D .E .D !f!D | G B B/A/ G/F/ | E G G2 |]
w: pig was eat, And Tom was beat, Which sent him howl-*ing* down the street.
% - - - - - - - - - - - - - - - - - - - - - - - - - - - - -

%%sep 1 1 500
%%sep 1 1 500
%%center PART THREE.

%%sep 1 1 500
%%sep 1 1 500

